X: 559
%
T: Romp Among the Whins
C:
O:Scotland
B:Keith Norman MacDonald : "The Skye collection of the best reels & strathspeys extant" : 1887
Z:Ralph Palmer
R:Reel
M:C
L:1/8
K:A
a | {/f}e2 (dc) eAAa | {/f}e2 (dc) fBBa | {/f}e2 dc ABcA | dfce fBB ::
c | A/2A/2A (ae) (fe) (ac) | A/2A/2A (ac) fBBc | A/2A/2A (ae) T(fe) (ae) | fe{/c}dc fBB :|


